public/img/sidebar-background.svg

<svg enable-background="new 0 0 421.2 842.2" viewBox="0 0 421.2 842.2" xmlns="http://www.w3.org/2000/svg" xmlns:xlink="http://www.w3.org/1999/xlink"><linearGradient id="a" gradientTransform="matrix(-343.9457 -596.4179 -596.4179 343.9457 472647.7812 -340718.9688)" gradientUnits="userSpaceOnUse" x1="-87.0285" x2="-86.0285" y1="841.9678" y2="841.9678"><stop offset="0" stop-color="#080808"/><stop offset="1" stop-color="#242424"/></linearGradient><g clip-rule="evenodd" fill-rule="evenodd"><path d="m.1.1h420.9v841.9h-420.9z" style="stroke:#000;stroke-width:.2736;stroke-linecap:round;stroke-linejoin:round;stroke-miterlimit:3.1571;fill:url(#a)"/><path d="m147 152.1-146.9-152h130z" fill="#242424"/><path d="m147 152.1-146.9-152v106.7z" fill="#252525"/><path d="m147 152.1v62.7l-146.9-80.5v-27.5z" fill="#222"/><path d="m.1 268.5 146.9-53.7-146.9-80.5z" fill="#242424"/><path d="m.1 268.5 146.9-53.7-47.9 206.3z" fill="#1f1f1f"/><path d="m.1 268.5v201l8.4 2.1 90.5-50.5z" fill="#1f1f1f"/><path d="m33.8 528.4-25.2-56.8 90.5-50.5z" fill="#1a1a1a"/><path d="m33.8 528.4 204.2 19-138.9-126.3z" fill="#181818"/><path d="m33.8 528.4 204.2 19-124.2 84.2z" fill="#161616"/><path d="m33.8 528.4h-33.7v189.4l113.7-86.3z" fill="#191919"/><path d="m135.9 732.6-102.1 109.4h-33.7v-124.2l113.7-86.3z" fill="#161616"/><path d="m135.9 732.6 137.9-14.7-35.8-170.5-124.2 84.2z" fill="#111"/><path d="m135.9 732.6 137.9-14.7-16.9 124.1h-121z" fill="#0e0e0e"/><path d="m421.1 799.9-147.3-82.1-16.9 124.2h164.2z" fill="#080808"/><path d="m421.1 799.9-147.3-82.1 147.3-128.4z" fill="#070707"/><path d="m135.9 732.6-102.1 109.4h102.1z" fill="#121212"/><path d="m286.4 395.8-48.4 151.6-138.9-126.3z" fill="#151515"/><path d="m286.4 395.8-48.4 151.6 160-126.3z" fill="#111"/><path d="m273.8 717.8-35.8-170.4 160-126.3 23.2 37.9v130.5z" fill="#0d0d0d"/><path d="m33.8 528.4-25.2-56.8-8.4-2.1v58.9z" fill="#1d1d1d"/><path d="m147 152.1 133.5-17.8-99.3-134.2h-51z" fill="#1e1e1e"/><path d="m147 152.1 133.5-17.8-133.5 80.5z" fill="#1b1b1b"/><path d="m290.6 303.2-10.1-168.9-133.5 80.5z" fill="#181818"/><path d="m290.6 303.2-191.5 117.9 47.9-206.3z" fill="#191919"/><path d="m290.6 303.2-191.5 117.9 187.3-25.3z" fill="#161616"/><path d="m290.6 303.2 107.3 117.9-111.6-25.3z" fill="#111"/><path d="m290.6 303.2 107.3 117.9 23.2-40.5v-65.8z" fill="#101010"/><path d="m421.1 459-23.2-37.9 23.2-40.5z" fill="#0c0c0c" fill-opacity=".95"/><path d="m325.9.1-45.4 134.2-99.3-134.2z" fill="#1c1c1c"/><path d="m325.9.1-45.4 134.2 140.6-24v-110.2z" fill="#151515"/><path d="m421.1 284.8-140.6-150.5 140.6-24z" fill="#111"/><path d="m421.1 284.8-140.6-150.5 10.1 168.9 130.5 11.6z" fill="#131313"/></g></svg>

<?xml version="1.0" encoding="utf-8"?>
<!-- Generator: Adobe Illustrator 25.0.1, SVG Export Plug-In . SVG Version: 6.00 Build 0)  -->
<svg version="1.1" id="Ebene_1" xmlns:serif="http://www.serif.com/"
	 xmlns="http://www.w3.org/2000/svg" xmlns:xlink="http://www.w3.org/1999/xlink" x="0px" y="0px" viewBox="0 0 421.2 842.2"
	 style="enable-background:new 0 0 421.2 842.2;" xml:space="preserve">
<style type="text/css">
	
		.st0{fill-rule:evenodd;clip-rule:evenodd;fill:url(#SVGID_1_);stroke:#000000;stroke-width:0.2736;stroke-linecap:round;stroke-linejoin:round;stroke-miterlimit:3.1571;}
	.st1{fill-rule:evenodd;clip-rule:evenodd;fill:#242424;}
	.st2{fill-rule:evenodd;clip-rule:evenodd;fill:#252525;}
	.st3{fill-rule:evenodd;clip-rule:evenodd;fill:#222222;}
	.st4{fill-rule:evenodd;clip-rule:evenodd;fill:#1F1F1F;}
	.st5{fill-rule:evenodd;clip-rule:evenodd;fill:#1A1A1A;}
	.st6{fill-rule:evenodd;clip-rule:evenodd;fill:#181818;}
	.st7{fill-rule:evenodd;clip-rule:evenodd;fill:#161616;}
	.st8{fill-rule:evenodd;clip-rule:evenodd;fill:#191919;}
	.st9{fill-rule:evenodd;clip-rule:evenodd;fill:#111111;}
	.st10{fill-rule:evenodd;clip-rule:evenodd;fill:#0E0E0E;}
	.st11{fill-rule:evenodd;clip-rule:evenodd;fill:#080808;}
	.st12{fill-rule:evenodd;clip-rule:evenodd;fill:#070707;}
	.st13{fill-rule:evenodd;clip-rule:evenodd;fill:#121212;}
	.st14{fill-rule:evenodd;clip-rule:evenodd;fill:#151515;}
	.st15{fill-rule:evenodd;clip-rule:evenodd;fill:#0D0D0D;}
	.st16{fill-rule:evenodd;clip-rule:evenodd;fill:#1D1D1D;}
	.st17{fill-rule:evenodd;clip-rule:evenodd;fill:#1E1E1E;}
	.st18{fill-rule:evenodd;clip-rule:evenodd;fill:#1B1B1B;}
	.st19{fill-rule:evenodd;clip-rule:evenodd;fill:#101010;}
	.st20{fill-rule:evenodd;clip-rule:evenodd;fill:#0C0C0C;fill-opacity:0.95;}
	.st21{fill-rule:evenodd;clip-rule:evenodd;fill:#1C1C1C;}
	.st22{fill-rule:evenodd;clip-rule:evenodd;fill:#131313;}
</style>
<linearGradient id="SVGID_1_" gradientUnits="userSpaceOnUse" x1="-87.0285" y1="841.9678" x2="-86.0285" y2="841.9678" gradientTransform="matrix(-343.9457 -596.4179 -596.4179 343.9457 472647.7812 -340718.9688)">
	<stop  offset="0" style="stop-color:#080808"/>
	<stop  offset="1" style="stop-color:#242424"/>
</linearGradient>
<rect x="0.1" y="0.1" class="st0" width="420.9" height="841.9"/>
<g id="Dreiecke">
	<path class="st1" d="M147,152.1L0.1,0.1h130L147,152.1z"/>
	<path class="st2" d="M147,152.1L0.1,0.1v106.7L147,152.1z"/>
	<path class="st3" d="M147,152.1v62.7L0.1,134.3v-27.5L147,152.1z"/>
	<path class="st1" d="M0.1,268.5L147,214.8L0.1,134.3V268.5z"/>
	<path class="st4" d="M0.1,268.5L147,214.8L99.1,421.1L0.1,268.5z"/>
	<path class="st4" d="M0.1,268.5v201l8.4,2.1l90.5-50.5L0.1,268.5z"/>
	<path class="st5" d="M33.8,528.4L8.6,471.6l90.5-50.5L33.8,528.4z"/>
	<path class="st6" d="M33.8,528.4L238,547.4L99.1,421.1L33.8,528.4z"/>
	<path class="st7" d="M33.8,528.4L238,547.4l-124.2,84.2L33.8,528.4z"/>
	<path class="st8" d="M33.8,528.4H0.1v189.4l113.7-86.3L33.8,528.4z"/>
	<path class="st7" d="M135.9,732.6L33.8,842H0.1V717.8l113.7-86.3L135.9,732.6z"/>
	<path class="st9" d="M135.9,732.6l137.9-14.7L238,547.4l-124.2,84.2L135.9,732.6z"/>
	<path class="st10" d="M135.9,732.6l137.9-14.7L256.9,842h-121V732.6z"/>
	<path class="st11" d="M421.1,799.9l-147.3-82.1L256.9,842h164.2V799.9z"/>
	<path class="st12" d="M421.1,799.9l-147.3-82.1l147.3-128.4V799.9z"/>
	<path class="st13" d="M135.9,732.6L33.8,842h102.1V732.6z"/>
	<path class="st14" d="M286.4,395.8L238,547.4L99.1,421.1L286.4,395.8z"/>
	<path class="st9" d="M286.4,395.8L238,547.4l160-126.3L286.4,395.8z"/>
	<path class="st15" d="M273.8,717.8L238,547.4l160-126.3l23.2,37.9v130.5L273.8,717.8z"/>
	<path id="_1" serif:id="1" class="st16" d="M33.8,528.4L8.6,471.6l-8.4-2.1v58.9H33.8z"/>
	<path class="st17" d="M147,152.1l133.5-17.8L181.2,0.1h-51L147,152.1z"/>
	<path class="st18" d="M147,152.1l133.5-17.8L147,214.8V152.1z"/>
	<path class="st6" d="M290.6,303.2l-10.1-168.9L147,214.8L290.6,303.2z"/>
	<path class="st8" d="M290.6,303.2L99.1,421.1L147,214.8L290.6,303.2z"/>
	<path class="st7" d="M290.6,303.2L99.1,421.1l187.3-25.3L290.6,303.2z"/>
	<path class="st9" d="M290.6,303.2l107.3,117.9l-111.6-25.3L290.6,303.2z"/>
	<path class="st19" d="M290.6,303.2l107.3,117.9l23.2-40.5v-65.8L290.6,303.2z"/>
	<path class="st20" d="M421.1,459l-23.2-37.9l23.2-40.5V459z"/>
	<path class="st21" d="M325.9,0.1l-45.4,134.2L181.2,0.1H325.9z"/>
	<path class="st14" d="M325.9,0.1l-45.4,134.2l140.6-24V0.1H325.9z"/>
	<path class="st9" d="M421.1,284.8L280.5,134.3l140.6-24V284.8z"/>
	<path class="st22" d="M421.1,284.8L280.5,134.3l10.1,168.9l130.5,11.6V284.8z"/>
</g>
</svg>
